X: 212
T: No_69_Alligator_Dance_Song_(e).krn
N: Derived from No_69_Alligator_Dance_Song_(e).krn
%%abc-version 2.0
%%abcx-abcm2ps-target-version 5.9.1 (29 Sep 2008)
%%abc-creator hum2abc beta
%%abcx-conversion-date 2019/03/15 08:38:45
%%humdrum-veritas 1932362367
%%humdrum-veritas-data 4118738039
%%linebreak <none>
%%barnumbers 0
L: 1/8
M: 2/4
K: G clef=bass
[K:clef=bass][M:2/4]B,4 ||  
[M:3/4]B,B,B,2B,2 ||  
[M:2/4]B,4- | 
B,A,G,2 ||  
[M:3/4]B,B,B,2A,2 | 
G,3/E,/E,2E, z | 
E,E,E,2E,2 | 
G,3/E,/E,2E,2 | 
B,B,B,2A,2 ||  
[M:4/4]G,3/E,/E,2E,2z2 ||  
[M:3/4]E,E,E,2E,2 | 
G,3/E,/E,2E, z ||  
[M:2/4]B,2z2 | 
B,4 |]  



